Avidclan_Website/assets/images/icons/authentication-libraries-ic.svg

<?xml version="1.0" encoding="utf-8"?>
<!-- Generator: Adobe Illustrator 24.1.1, SVG Export Plug-In . SVG Version: 6.00 Build 0)  -->
<svg version="1.1" id="Layer_1" xmlns="http://www.w3.org/2000/svg" xmlns:xlink="http://www.w3.org/1999/xlink" x="0px" y="0px"
	 viewBox="0 0 464 473.6" style="enable-background:new 0 0 464 473.6;" xml:space="preserve">
<style type="text/css">
	.st0{clip-path:url(#SVGID_2_);}
	.st1{fill:#007AFB;}
</style>
<g>
	<defs>
		<rect id="SVGID_1_" width="464" height="473.6"/>
	</defs>
	<clipPath id="SVGID_2_">
		<use xlink:href="#SVGID_1_"  style="overflow:visible;"/>
	</clipPath>
	<g class="st0">
		<path class="st1" d="M444.8,271.9v-46.3c0-17.7-6.6-34.7-18.5-47.8c-11.9-13.1-28.2-21.3-45.8-23v-51.3v-0.7v0
			c0-0.8-0.2-1.6-0.6-2.3c-0.2-0.3-0.4-0.7-0.7-1c-0.3-0.6-0.7-1-1.2-1.4v-0.4C346.8,75.2,291.2,34,246.8,1.4
			C245.5,0.5,244,0,242.4,0H37.3c-9.8,0-19.2,3.9-26.2,10.8C4.2,17.8,0.3,27.2,0.3,37v399.6c0,9.8,3.9,19.2,10.8,26.2
			c6.9,6.9,16.4,10.8,26.2,10.8h306.3c9.8,0,19.2-3.9,26.2-10.8c6.9-6.9,10.8-16.4,10.8-26.2v-21.7h55.3c7.4,0,14.4-3,19.7-8.2
			s8.2-12.3,8.2-19.7v-88.8c0-5.8-1.8-11.5-5.2-16.2C455.1,277.4,450.3,273.8,444.8,271.9L444.8,271.9z M373.7,168.9
			c15,0,29.5,6,40.1,16.6c10.6,10.6,16.6,25.1,16.6,40.1V270H316.1v-44.4c0-15,6-29.4,16.5-40c10.6-10.6,24.9-16.7,39.9-16.8
			L373.7,168.9z M351.5,96.6l-100,0l-1.6-75.1C284.3,46.8,323.2,75.6,351.5,96.6L351.5,96.6z M366.3,436.7L366.3,436.7
			c0,6-2.4,11.7-6.6,15.9c-4.2,4.2-10,6.6-15.9,6.6H37.3c-6,0-11.7-2.4-16-6.7c-4.2-4.2-6.6-10-6.6-16V37c0-6,2.4-11.7,6.6-16
			c4.2-4.2,10-6.6,16-6.7h198.1l1.9,89.6h0c0.2,3.9,3.5,7,7.4,7h121.4v43.9c-17.6,1.7-33.9,9.9-45.8,22.9
			c-11.9,13.1-18.5,30.1-18.5,47.8v46.3c-5.5,1.9-10.2,5.4-13.6,10.1c-3.4,4.7-5.2,10.3-5.2,16.1v88.8c0,7.4,3,14.4,8.2,19.7
			c5.2,5.2,12.3,8.2,19.7,8.2h55.4L366.3,436.7z M449.4,387.1L449.4,387.1c0,7.4-6,13.4-13.5,13.5H310.8c-7.4,0-13.4-6-13.5-13.5
			v-88.8c0-7.4,6-13.4,13.5-13.5h125c7.4,0,13.4,6,13.5,13.5L449.4,387.1z"/>
	</g>
</g>
<path class="st1" d="M392.4,342c5-6.4,6.5-14.8,4.1-22.5c-2.4-7.7-8.5-13.8-16.2-16.2c-7.7-2.4-16.2-0.8-22.5,4.2
	c-5,4.2-8.2,10.2-8.8,16.7c-0.6,6.5,1.4,13,5.5,18l-5.4,24.1l0,0c-0.9,4.2,0.1,8.6,2.7,11.9c2.7,3.3,6.7,5.3,11,5.3h21.4
	c4.2-0.1,8.2-2,10.8-5.4c2.6-3.3,3.6-7.6,2.7-11.7L392.4,342z M362.8,369.4l6.3-27.9c0.7-2.7-0.3-5.6-2.4-7.4
	c-3.3-2.8-4.5-7.4-3.1-11.4c1.5-4.1,5.3-6.8,9.7-6.8c0.7-0.1,1.4-0.1,2.1,0c4.1,0.7,7.4,3.7,8.4,7.7c1,4-0.5,8.3-3.8,10.8
	c-2,1.7-2.9,4.4-2.4,7l6.1,27.8L362.8,369.4z"/>
<path class="st1" d="M84.7,194.6H42.5c-3.3,0.8-5.6,3.8-5.6,7.2s2.3,6.4,5.6,7.2h42.2h0c2.2,0.6,4.6,0.1,6.4-1.3
	c1.8-1.4,2.8-3.6,2.8-5.8c0-2.3-1.1-4.4-2.8-5.8S86.9,194.1,84.7,194.6L84.7,194.6z"/>
<path class="st1" d="M169.2,194.6H127c-3.3,0.8-5.6,3.8-5.6,7.2s2.3,6.4,5.6,7.2h42.2c3.3-0.8,5.6-3.8,5.6-7.2
	S172.5,195.4,169.2,194.6z"/>
<path class="st1" d="M251.5,194.6h-42.2h0c-3.3,0.8-5.6,3.8-5.6,7.2s2.3,6.4,5.6,7.2h42.2h0c3.3-0.8,5.6-3.8,5.6-7.2
	S254.8,195.4,251.5,194.6z"/>
</svg>

<svg width="464" height="474" viewBox="0 0 464 474" fill="none" xmlns="http://www.w3.org/2000/svg">
<g clip-path="url(#clip0_493_287)">
<mask id="mask0_493_287" style="mask-type:luminance" maskUnits="userSpaceOnUse" x="0" y="0" width="464" height="474">
<path d="M464 0H0V473.6H464V0Z" fill="white"/>
</mask>
<g mask="url(#mask0_493_287)">
<path d="M444.8 271.9V225.6C444.8 207.9 438.2 190.9 426.3 177.8C414.4 164.7 398.1 156.5 380.5 154.8V103.5V102.8C380.5 102 380.3 101.2 379.9 100.5C379.7 100.2 379.5 99.8 379.2 99.5C378.9 98.9 378.5 98.5 378 98.1V97.7C346.8 75.2 291.2 34 246.8 1.4C245.5 0.5 244 0 242.4 0H37.3C27.5 0 18.1 3.9 11.1 10.8C4.20005 17.8 0.300049 27.2 0.300049 37V436.6C0.300049 446.4 4.20005 455.8 11.1 462.8C18 469.7 27.5 473.6 37.3 473.6H343.6C353.4 473.6 362.8 469.7 369.8 462.8C376.7 455.9 380.6 446.4 380.6 436.6V414.9H435.9C443.3 414.9 450.3 411.9 455.6 406.7C460.9 401.5 463.8 394.4 463.8 387V298.2C463.8 292.4 462 286.7 458.6 282C455.1 277.4 450.3 273.8 444.8 271.9ZM373.7 168.9C388.7 168.9 403.2 174.9 413.8 185.5C424.4 196.1 430.4 210.6 430.4 225.6V270H316.1V225.6C316.1 210.6 322.1 196.2 332.6 185.6C343.2 175 357.5 168.9 372.5 168.8L373.7 168.9ZM351.5 96.6H251.5L249.9 21.5C284.3 46.8 323.2 75.6 351.5 96.6ZM366.3 436.7C366.3 442.7 363.9 448.4 359.7 452.6C355.5 456.8 349.7 459.2 343.8 459.2H37.3C31.3 459.2 25.6 456.8 21.3 452.5C17.1 448.3 14.7 442.5 14.7 436.5V37C14.7 31 17.1 25.3 21.3 21C25.5 16.8 31.3 14.4 37.3 14.3H235.4L237.3 103.9C237.5 107.8 240.8 110.9 244.7 110.9H366.1V154.8C348.5 156.5 332.2 164.7 320.3 177.7C308.4 190.8 301.8 207.8 301.8 225.5V271.8C296.3 273.7 291.6 277.2 288.2 281.9C284.8 286.6 283 292.2 283 298V386.8C283 394.2 286 401.2 291.2 406.5C296.4 411.7 303.5 414.7 310.9 414.7H366.3V436.7ZM449.4 387.1C449.4 394.5 443.4 400.5 435.9 400.6H310.8C303.4 400.6 297.4 394.6 297.3 387.1V298.3C297.3 290.9 303.3 284.9 310.8 284.8H435.8C443.2 284.8 449.2 290.8 449.3 298.3L449.4 387.1Z" fill="#0E53BE"/>
</g>
<path d="M392.4 342C397.4 335.6 398.9 327.2 396.5 319.5C394.1 311.8 388 305.7 380.3 303.3C372.6 300.9 364.1 302.5 357.8 307.5C352.8 311.7 349.6 317.7 349 324.2C348.4 330.7 350.4 337.2 354.5 342.2L349.1 366.3C348.2 370.5 349.2 374.9 351.8 378.2C354.5 381.5 358.5 383.5 362.8 383.5H384.2C388.4 383.4 392.4 381.5 395 378.1C397.6 374.8 398.6 370.5 397.7 366.4L392.4 342ZM362.8 369.4L369.1 341.5C369.8 338.8 368.8 335.9 366.7 334.1C363.4 331.3 362.2 326.7 363.6 322.7C365.1 318.6 368.9 315.9 373.3 315.9C374 315.8 374.7 315.8 375.4 315.9C379.5 316.6 382.8 319.6 383.8 323.6C384.8 327.6 383.3 331.9 380 334.4C378 336.1 377.1 338.8 377.6 341.4L383.7 369.2L362.8 369.4Z" fill="#0E53BE"/>
<path d="M84.7 194.6H42.5C39.2 195.4 36.9 198.4 36.9 201.8C36.9 205.2 39.2 208.2 42.5 209H84.7C86.9 209.6 89.3 209.1 91.1 207.7C92.9 206.3 93.9 204.1 93.9 201.9C93.9 199.6 92.8 197.5 91.1 196.1C89.4 194.7 86.9 194.1 84.7 194.6Z" fill="#0E53BE"/>
<path d="M169.2 194.6H127C123.7 195.4 121.4 198.4 121.4 201.8C121.4 205.2 123.7 208.2 127 209H169.2C172.5 208.2 174.8 205.2 174.8 201.8C174.8 198.4 172.5 195.4 169.2 194.6Z" fill="#0E53BE"/>
<path d="M251.5 194.6H209.3C206 195.4 203.7 198.4 203.7 201.8C203.7 205.2 206 208.2 209.3 209H251.5C254.8 208.2 257.1 205.2 257.1 201.8C257.1 198.4 254.8 195.4 251.5 194.6Z" fill="#0E53BE"/>
</g>
<defs>
<clipPath id="clip0_493_287">
<rect width="464" height="473.6" fill="white"/>
</clipPath>
</defs>
</svg>
